X:584
T:
S:Upptecknad efter Maria Fredins föresjungning (Flors i Burs).
R:schottis
O:Gotland, Burs
M:2/4
L:1/8
K:D
f>g fe|fg a2|e>g fe|df' a>g|f>g fe|f>g a2|e>g fe|d2 z2:|
|:b>e g>b|ad f>a|gA ce|df/a/ d'>c'|be g>b|ad f>a|gA c>e|d2 z2:|

